flags/au.svg

<svg width="512" height="512" viewBox="0 0 512 512" fill="none" xmlns="http://www.w3.org/2000/svg">
<rect width="512" height="512" fill="var(--flag-palette-navy, #002266)"/>
<rect width="256" height="256" fill="var(--flag-palette-navy, #002266)"/>
<path d="M232 256H256V232L152 128L256 24V0H232L128 104L24 0H0V24L104 128L0 232V256H24L128 152L232 256Z" fill="var(--flag-palette-white, #eeeeee)"/>
<path d="M256 160V96H160V0H96V96H0V160H96V256H160V160H256Z" fill="var(--flag-palette-white, #eeeeee)"/>
<path d="M256 144V112H144V0H112V112H0V144H112V256H144V144H256Z" fill="var(--flag-palette-bright-red, #d80027)"/>
<path d="M0 16V0L96 96H80L0 16Z" fill="var(--flag-palette-bright-red, #d80027)"/>
<path d="M256 240L256 256L160 160L176 160L256 240Z" fill="var(--flag-palette-bright-red, #d80027)"/>
<path d="M16 256L0 256L96 160L96 176L16 256Z" fill="var(--flag-palette-bright-red, #d80027)"/>
<path d="M240 -6.99382e-07L256 0L160 96L160 80L240 -6.99382e-07Z" fill="var(--flag-palette-bright-red, #d80027)"/>
<path d="M128 328.348L142.05 357.726L173.777 350.393L159.569 379.695L185.083 399.928L153.316 407.088L153.405 439.652L128 419.279L102.596 439.652L102.685 407.088L70.917 399.928L96.432 379.695L82.222 350.393L113.951 357.726L128 328.348Z" fill="var(--flag-palette-white, #eeeeee)"/>
<path d="M383.284 356.174L390.309 370.863L406.173 367.196L399.068 381.847L411.826 391.964L395.942 395.544L395.986 411.826L383.284 401.639L370.582 411.826L370.626 395.544L354.743 391.964L367.5 381.847L360.396 367.196L376.259 370.863L383.284 356.174Z" fill="var(--flag-palette-white, #eeeeee)"/>
<path d="M317.933 200.348L324.957 215.038L340.821 211.37L333.717 226.021L346.474 236.138L330.591 239.718L330.634 256L317.933 245.813L305.231 256L305.274 239.718L289.391 236.138L302.148 226.021L295.044 211.37L310.908 215.038L317.933 200.348Z" fill="var(--flag-palette-white, #eeeeee)"/>
<path d="M383.284 111.304L390.309 125.994L406.173 122.327L399.069 136.978L411.825 147.094L395.942 150.675L395.986 166.957L383.284 156.77L370.582 166.957L370.626 150.675L354.743 147.094L367.499 136.978L360.396 122.327L376.259 125.994L383.284 111.304Z" fill="var(--flag-palette-white, #eeeeee)"/>
<path d="M440.368 178.087L447.392 192.777L463.256 189.109L456.152 203.76L468.909 213.877L453.025 217.458L453.069 233.739L440.368 223.553L427.666 233.739L427.709 217.458L411.826 213.877L424.583 203.76L417.479 189.109L433.342 192.777L440.368 178.087Z" fill="var(--flag-palette-white, #eeeeee)"/>
<path d="M399.55 256L405.075 273.006H422.957L408.49 283.517L414.017 300.522L399.55 290.012L385.084 300.522L390.609 283.517L376.143 273.006H394.024L399.55 256Z" fill="var(--flag-palette-white, #eeeeee)"/>
</svg>

<svg xmlns="http://www.w3.org/2000/svg" width="512" height="512" fill="none"><path fill="var(--flag-palette-navy, #002266)" d="M0 0h512v512H0z"/><path fill="var(--flag-palette-navy, #002266)" d="M0 0h256v256H0z"/><path fill="var(--flag-palette-white, #eeeeee)" d="M232 256h24v-24L152 128 256 24V0h-24L128 104 24 0H0v24l104 104L0 232v24h24l104-104z"/><path fill="var(--flag-palette-white, #eeeeee)" d="M256 160V96h-96V0H96v96H0v64h96v96h64v-96z"/><path fill="var(--flag-palette-bright-red, #d80027)" d="M256 144v-32H144V0h-32v112H0v32h112v112h32V144z"/><path fill="var(--flag-palette-bright-red, #d80027)" d="M0 16V0l96 96H80zm256 224v16l-96-96h16zM16 256H0l96-96v16zM240 0h16l-96 96V80z"/><path fill="var(--flag-palette-white, #eeeeee)" d="m128 328.3 14 29.4 31.8-7.3-14.2 29.3 25.5 20.2-31.8 7.2.1 32.6-25.4-20.4-25.4 20.4V407L71 399.9l25.5-20.2-14.2-29.3 31.8 7.3zm255.3 27.9 7 14.7 15.9-3.7-7.1 14.6 12.7 10.2-15.9 3.5v16.3l-12.6-10.2-12.7 10.2v-16.3l-15.9-3.5 12.8-10.2-7.1-14.6 15.9 3.7zM318 200.3l7 14.7 15.8-3.6-7 14.6 12.7 10.1-16 3.6.1 16.3-12.7-10.2-12.7 10.2v-16.3l-15.8-3.6 12.7-10-7-14.7 15.8 3.6zm65.3-89 7 14.7 15.9-3.7L399 137l12.7 10-15.9 3.7V167l-12.6-10.2-12.7 10.2v-16.3l-15.9-3.6 12.8-10.1-7.1-14.7 15.9 3.7zm57.1 66.7 7 14.8 15.9-3.7-7.1 14.7 12.7 10-15.9 3.7v16.2l-12.6-10.1-12.7 10.1v-16.2l-15.9-3.6 12.8-10.1-7.1-14.7 15.8 3.7zm-40.8 78 5.5 17H423l-14.5 10.5 5.5 17-14.4-10.5-14.5 10.5 5.5-17-14.5-10.5h18z"/></svg>
